svg/handshake_outline.svg

<svg xmlns="http://www.w3.org/2000/svg" viewBox="0 0 24 24"><path d="M21.71 8.71c1.25-1.25.68-2.71 0-3.42l-3-3c-1.26-1.25-2.71-.68-3.42 0L13.59 4H11C9.1 4 8 5 7.44 6.15L3 10.59v4l-.71.7c-1.25 1.26-.68 2.71 0 3.42l3 3c.54.54 1.12.74 1.67.74.71 0 1.36-.35 1.75-.74l2.7-2.71H15c1.7 0 2.56-1.06 2.87-2.1 1.13-.3 1.75-1.16 2-2C21.42 14.5 22 13.03 22 12V9h-.59zM20 12c0 .45-.19 1-1 1h-1v1c0 .45-.19 1-1 1h-1v1c0 .45-.19 1-1 1h-4.41l-3.28 3.28c-.31.29-.49.12-.6.01l-2.99-2.98c-.29-.31-.12-.49-.01-.6L5 15.41v-4l2-2V11c0 1.21.8 3 3 3s3-1.79 3-3h7zm.29-4.71L18.59 9H11v2c0 .45-.19 1-1 1s-1-.55-1-1V8c0-.46.17-2 2-2h3.41l2.28-2.28c.31-.29.49-.12.6-.01l2.99 2.98c.29.31.12.49.01.6"/></svg>

<?xml version="1.0" encoding="UTF-8"?><!DOCTYPE svg PUBLIC "-//W3C//DTD SVG 1.1//EN" "http://www.w3.org/Graphics/SVG/1.1/DTD/svg11.dtd"><svg xmlns="http://www.w3.org/2000/svg" xmlns:xlink="http://www.w3.org/1999/xlink" version="1.1" id="mdi-handshake-outline" width="24" height="24" viewBox="0 0 24 24"><path d="M21.71 8.71C22.96 7.46 22.39 6 21.71 5.29L18.71 2.29C17.45 1.04 16 1.61 15.29 2.29L13.59 4H11C9.1 4 8 5 7.44 6.15L3 10.59V14.59L2.29 15.29C1.04 16.55 1.61 18 2.29 18.71L5.29 21.71C5.83 22.25 6.41 22.45 6.96 22.45C7.67 22.45 8.32 22.1 8.71 21.71L11.41 19H15C16.7 19 17.56 17.94 17.87 16.9C19 16.6 19.62 15.74 19.87 14.9C21.42 14.5 22 13.03 22 12V9H21.41L21.71 8.71M20 12C20 12.45 19.81 13 19 13L18 13L18 14C18 14.45 17.81 15 17 15L16 15L16 16C16 16.45 15.81 17 15 17H10.59L7.31 20.28C7 20.57 6.82 20.4 6.71 20.29L3.72 17.31C3.43 17 3.6 16.82 3.71 16.71L5 15.41V11.41L7 9.41V11C7 12.21 7.8 14 10 14S13 12.21 13 11H20V12M20.29 7.29L18.59 9H11V11C11 11.45 10.81 12 10 12S9 11.45 9 11V8C9 7.54 9.17 6 11 6H14.41L16.69 3.72C17 3.43 17.18 3.6 17.29 3.71L20.28 6.69C20.57 7 20.4 7.18 20.29 7.29Z" /></svg>
